X:1
T:Common Bill (2)
M:4/4
L:1/8
K:C
 G/2F/2| ED EF G G2 G| AA AA G3E/2-E/2| FG AB c G2 G/2G/2| FF EE D2 z|\
G/2-F/2| ED EF G G2 G/2G/2| cc dB c3 B/2B/2| cG GG A E2 G/2G/2| G, G,A, B, C2||\
